!!!!SEGMENT: pl-sa--l-1636--108_anonim--krzyzu-swiety.krn
!!!cenid: 17xx:815
!!!COM: Anonim
!!!COM-rismID: pe30004985
!!!CDT:
!!!CNT:
!!!OTL: Krzyżu Święty
!!!PDT:
!!!AGN: Sacred
!!!YEC: Copyright 2022 Narodowy Instytut Fryderyka Chopina (https://polishscores.org)
!!!YEM: License CC-BY-4.0 (https://creativecommons.org/licenses/by/4.0)
!!!SMS-siglum: PL-SA
!!!SMS-shelfmark: L 1636
!!!SMS-shelfwork: 108 W
!!!SMS-variant:
!!!SMS-altvar:
!!!NIFC-rismSourceID: 1001087584
!!!NIFC-rismChildID: 1001087584
!!!NIFC-islandoraID:
!!!URL-pdf-islandora:
!!!URL-scan:
!!!IIIF:
!!!ONB-nifc: 54r, skan 0045, s. 6-8
!!!AIN: 2 organ
!!!key:
**kern	**kern
*part2	*part1
*staff2	*staff1
*Iorgan	*Iorgan
*I"Organo	*I"Organo
*clefF4	*clefC1
*k[]	*k[]
*d:	*d:
*M4/2	*M4/2
*met(c|)	*met(c|)
=1	=1
!LO:SIC:o:s:=:v:metrum C z kropką [przyjęto zgodnie z podziałem na takty 4/2]	!LO:SIC:o:s:=:v:metrum alla breve [przyjęto zgodnie z podziałem na takty 4/2]
!LO:TX:a:t=Krzyzu Swiety	!
2D/	2d/
2AA/	2e/
*2\right	*
2E\	2g#X/
!	!LO:SIC:o:s:=:v:all\right&colon;global
*	*2\right
8D/L	2a\
8C/	.
8D/	.
8AA/J	.
=2	=2
8AA/L	2a\
8BB/	.
8C/	.
8D/J	.
4E\	2g#X/
4EE/	.
4AA/	2a\
4A\	.
4G\	2b\
4E\	.
=3	=3
4C/	2cc\
4AA/	.
4GG/	2b\
4G\	.
4A\	2a\
8G\L	.
8F\J	.
2E\	2g#X/
=4	=4
8G\L	2b\
8F\	.
8E\	.
8D\J	.
4C#X/	2cc#X\
4AA/	.
4.BB/	1dd\
8AA/	.
2GG/	.
!!LO:LB:g=original
=5	=5
!LO:SIC:o:s:=:v:zmiana metrum [zgodnie z podziałem na takty 6/2]	!LO:SIC:o:s:=:v:zmiana metrum [zgodnie z podziałem na takty 6/2]
8AA/L	2a\
8BB/	.
8C/	.
8D/J	.
2E\	2g#X\
4A\	2cc\
8G\L	.
8F\J	.
!LO:TX:a:t=P:problem=mixed beam	!
8E\L	2b\
8D\	.
8E\	.
8EE\J	.
!	!LO:SIC:o:s:=:v:kreska taktowa koniec/początek repetycji
!LO:SIC:o:s:=:v:kreska taktowa koniec/początek repetycji	!LO:SIC:o:s:=:v:łuk nad i pod nutą [przyjęto fermatę]
1AA/	1a\;
=6||	=6||
2D/	2a\
8D\L	2a\
8E\	.
8F\	.
8G\J	.
4A\	2cc\
4AA/	.
2C/	2g/
4C/	1g\
4BB/	.
4AA/	.
4GG/	.
=7	=7
4FF/	2a\
4F\	.
4D/	4f/
4C/	4e/
4BB/	4d/
4C/	4e/
4D/	2f/
8C/L	.
8BB/J	.
1AA/	1e/
=8	=8
!LO:SIC:o:s:=:v:zmiana metrum [zgodnie z podziałem na takty 6/2]	!LO:SIC:o:s:=:v:zmiana metrum [zgodnie z podziałem na takty 6/2]
2D\	1d/
8D\L	.
8E\	.
8F\	.
8D\J	.
2F\	2a\
4F\	4a\
4E\	4g\
!!LO:LB:g=original
=9	=9
!LO:SIC:o:s:=:v:zmiana metrum [zgodnie z podziałem na takty 6/2]	!LO:SIC:o:s:=:v:zmiana metrum [zgodnie z podziałem na takty 6/2]
8D\L	2f/
8E\	.
8F\	.
8G\J	.
!LO:TX:a:t=P:problem=mixed beam	!
8A\L	4e/
8AA/	.
8D/	4d/
8DD/J	.
4AA/	4e/
!LO:SIC:o:s:=:v:♭ nad nutą	!
!LO:N:vis=16	!
8BB-X/L	4f/
!LO:N:vis=16	!
8GG/J	.
2AA/	2e/
!	!LO:SIC:o:s:=:v:kreska taktowa koniec/początek repetycji
1D\	1d/
==	==
*-	*-
!!!system-decoration: [(s1,s2)]
!!!EED: Leszek Kubiak
!!!EEV: 2020-12-09
!!!ENC: Andrzej Kubiczek
!!!END: 2020-06-13
